resources/icons/16px/layout-top-row-two-tiles.svg

<svg width="16" height="16" viewBox="0 0 16 16" fill="none" xmlns="http://www.w3.org/2000/svg">
<path d="M10 7C9.44772 7 9 6.55228 9 6V1C9 0.447715 9.44772 -4.82823e-08 10 0L15 4.37114e-07C15.5523 4.85396e-07 16 0.447716 16 1V6C16 6.55229 15.5523 7 15 7L10 7Z" fill="black"/>
<path d="M1 7C0.447715 7 -4.82823e-08 6.55228 0 6L4.37114e-07 1C4.85396e-07 0.447715 0.447716 -4.82823e-08 1 0L6 4.37114e-07C6.55229 4.85396e-07 7 0.447716 7 1L7 6C7 6.55229 6.55228 7 6 7L1 7Z" fill="black"/>
<path d="M1 16C0.447715 16 -4.82823e-08 15.5523 0 15L4.37114e-07 10C4.85396e-07 9.44772 0.447716 9 1 9L15 9C15.5523 9 16 9.44772 16 10V15C16 15.5523 15.5523 16 15 16L1 16Z" fill="black"/>
</svg>

<svg xmlns="http://www.w3.org/2000/svg" viewBox="0 0 16 16">
  <path d="M10 7a1 1 0 0 1-1-1V1a1 1 0 0 1 1-1h5a1 1 0 0 1 1 1v5a1 1 0 0 1-1 1zM1 7a1 1 0 0 1-1-1V1a1 1 0 0 1 1-1h5a1 1 0 0 1 1 1v5a1 1 0 0 1-1 1zM1 16a1 1 0 0 1-1-1v-5a1 1 0 0 1 1-1h14a1 1 0 0 1 1 1v5a1 1 0 0 1-1 1z"/>
</svg>
